public/images/logo-text-main.svg

<svg width="327" height="178" viewBox="0 0 327 178" fill="none" xmlns="http://www.w3.org/2000/svg">
<g clip-path="url(#clip0_25_197)">
<path d="M52.8129 117.623L109.359 145.581L141.049 143.573L131.262 152.841L116.815 159.946L100.038 164.426L81.3965 165.198L63.6871 161.027L48.4632 153.613L36.0355 144.809L26.8701 133.687L52.8129 117.623Z" fill="url(#paint0_linear_25_197)"/>
<path d="M12.0691 93.2617L56.4721 83.7922L110.932 127.103L151.621 133.623L143.576 143.093L109.694 145.111L53.0684 116.547L26.7669 133.468L19.8048 121.825L15.0087 108.785L12.0691 93.2617Z" fill="url(#paint1_linear_25_197)"/>
<path d="M25.148 44.6753L73.3038 58.0887L119.129 113.747L157.965 124.693L152.062 133.481L111.207 127.314L56.5269 83.8363L11.012 93.7036V79.0568L16.2936 59.4763L25.148 44.6753Z" fill="url(#paint2_linear_25_197)"/>
<path d="M72.7127 12.9587L105.946 41.2912L133.744 103.53L163.251 113.438L159.058 123.966L119.457 113.438L74.421 57.5475L25.813 43.3039L38.7026 29.6795L55.0088 18.6872L72.7127 12.9587Z" fill="url(#paint3_linear_25_197)"/>
<path d="M133.751 25.0961L148.998 39.3477L160.044 55.923L166.423 79.0045V96.5092L162.689 113.394L133.751 102.706L105.903 40.7419L73.3877 13.0132L91.7457 10.8445L113.371 14.5623L133.751 25.0961Z" fill="url(#paint4_linear_25_197)"/>
<g filter="url(#filter0_d_25_197)">
<path d="M72.4172 12.8672L105.963 40.7426L134.073 102.654L162.649 113.126" stroke="white" stroke-width="2.19693"/>
</g>
<g filter="url(#filter1_d_25_197)">
<path d="M25.8255 43.8229L73.8146 57.5296L119.319 113.126L157.99 123.599" stroke="white" stroke-width="2.19693"/>
</g>
<g filter="url(#filter2_d_25_197)">
<path d="M11.3827 93.5675L56.5764 83.5571L111.244 126.833L151.778 133.302" stroke="white" stroke-width="2.19693"/>
</g>
<g filter="url(#filter3_d_25_197)">
<path d="M26.6021 133.764L53.3146 116.977L109.535 145.16L142.615 143.004" stroke="white" stroke-width="2.19693"/>
</g>
<path d="M167.988 88.5498C167.988 131.118 133.01 165.665 89.8158 165.665C46.6218 165.665 11.6438 131.118 11.6438 88.5498C11.6438 45.9811 46.6218 11.435 89.8158 11.435C133.01 11.435 167.988 45.9811 167.988 88.5498Z" stroke="white" stroke-width="3.29539"/>
</g>
<g filter="url(#filter4_d_25_197)">
<path d="M195.82 80.3872C192.479 80.3872 189.937 79.3704 188.194 77.3366C186.45 75.2544 185.579 72.1796 185.579 68.112V40.0752C185.579 36.0561 186.45 33.0055 188.194 30.9233C189.937 28.8411 192.479 27.8 195.82 27.8C199.161 27.8 201.704 28.8411 203.447 30.9233C205.19 33.0055 206.062 36.0561 206.062 40.0752V45.8133H198.072V39.4941C198.072 37.8962 197.902 36.7825 197.563 36.153C197.224 35.475 196.643 35.1361 195.82 35.1361C194.997 35.1361 194.416 35.475 194.077 36.153C193.738 36.7825 193.568 37.8962 193.568 39.4941V68.6931C193.568 70.2426 193.738 71.3564 194.077 72.0343C194.464 72.7122 195.045 73.0512 195.82 73.0512C196.643 73.0512 197.224 72.7364 197.563 72.1069C197.902 71.429 198.072 70.2911 198.072 68.6931V61.1391H206.062V68.112C206.062 72.1311 205.19 75.1818 203.447 77.264C201.704 79.3461 199.161 80.3872 195.82 80.3872ZM220.937 80.3872C217.596 80.3872 215.029 79.3461 213.238 77.264C211.446 75.1818 210.55 72.0827 210.55 67.9668V28.6716H218.54V68.4752C218.54 71.5259 219.339 73.0512 220.937 73.0512C221.712 73.0512 222.293 72.7122 222.68 72.0343C223.067 71.308 223.261 70.1216 223.261 68.4752V28.6716H231.251V67.9668C231.251 72.0343 230.355 75.1334 228.563 77.264C226.772 79.3461 224.23 80.3872 220.937 80.3872ZM245.66 80.3872C242.319 80.3872 239.776 79.3704 238.033 77.3366C236.29 75.3028 235.418 72.3006 235.418 68.3299V63.5361H243.408V68.8384C243.408 70.3395 243.578 71.429 243.917 72.1069C244.255 72.7364 244.837 73.0512 245.66 73.0512C246.483 73.0512 247.064 72.7122 247.403 72.0343C247.79 71.3564 247.984 70.2426 247.984 68.6931C247.984 67.2404 247.863 66.0541 247.621 65.134C247.379 64.214 246.895 63.1729 246.168 62.0108C245.442 60.8486 244.11 58.8875 242.173 56.1274C240.333 53.561 238.977 51.4788 238.106 49.8808C237.234 48.2829 236.629 46.7576 236.29 45.3049C235.951 43.8522 235.781 42.1332 235.781 40.1478C235.781 36.1287 236.653 33.0781 238.396 30.9959C240.14 28.8653 242.633 27.8 245.878 27.8C249.17 27.8 251.688 28.8411 253.432 30.9233C255.175 33.0055 256.046 36.0561 256.046 40.0752V44.1427H248.057V39.4941C248.057 37.8962 247.887 36.7825 247.548 36.153C247.209 35.475 246.652 35.1361 245.878 35.1361C245.151 35.1361 244.619 35.475 244.28 36.153C243.941 36.8309 243.771 37.993 243.771 39.6394C243.771 41.0921 243.868 42.2542 244.062 43.1258C244.304 43.949 244.764 44.9417 245.442 46.1039C246.168 47.2176 247.476 49.0576 249.364 51.6241C251.253 54.2389 252.633 56.3695 253.504 58.0159C254.424 59.6623 255.054 61.236 255.393 62.7371C255.78 64.2382 255.974 66.0299 255.974 68.112C255.974 72.1796 255.102 75.2544 253.359 77.3366C251.616 79.3704 249.049 80.3872 245.66 80.3872ZM276.327 79.5156H260.42V28.6716H276.109V36.3709H268.41V49.8808H275.383V57.5801H268.41V71.8164H276.327V79.5156ZM289.876 80.3872C286.535 80.3872 283.992 79.3704 282.249 77.3366C280.506 75.2544 279.634 72.1796 279.634 68.112V40.0752C279.634 36.0561 280.506 33.0055 282.249 30.9233C283.992 28.8411 286.535 27.8 289.876 27.8C293.217 27.8 295.759 28.8411 297.502 30.9233C299.246 33.0055 300.117 36.0561 300.117 40.0752V45.8133H292.128V39.4941C292.128 37.8962 291.958 36.7825 291.619 36.153C291.28 35.475 290.699 35.1361 289.876 35.1361C289.053 35.1361 288.472 35.475 288.133 36.153C287.794 36.7825 287.624 37.8962 287.624 39.4941V68.6931C287.624 70.2426 287.794 71.3564 288.133 72.0343C288.52 72.7122 289.101 73.0512 289.876 73.0512C290.699 73.0512 291.28 72.7364 291.619 72.1069C291.958 71.429 292.128 70.2911 292.128 68.6931V61.1391H300.117V68.112C300.117 72.1311 299.246 75.1818 297.502 77.264C295.759 79.3461 293.217 80.3872 289.876 80.3872Z" fill="white"/>
</g>
<g filter="url(#filter5_d_25_197)">
<path d="M196.404 131.871C196.404 129.208 196.549 127.102 196.839 125.552C197.178 124.003 197.808 122.356 198.728 120.613C199.696 118.87 201.367 116.255 203.74 112.769C205.241 110.541 206.306 108.798 206.936 107.539C207.613 106.28 208.074 105.069 208.316 103.907C208.558 102.697 208.679 101.123 208.679 99.186C208.679 97.5881 208.509 96.4743 208.17 95.8449C207.831 95.1669 207.299 94.828 206.572 94.828C205.798 94.828 205.241 95.1669 204.902 95.8449C204.563 96.4743 204.393 97.5881 204.393 99.186V103.835H196.404V99.7671C196.404 95.748 197.275 92.6974 199.018 90.6152C200.762 88.533 203.28 87.4919 206.572 87.4919C209.865 87.4919 212.359 88.5088 214.054 90.5425C215.797 92.5763 216.669 95.5301 216.669 99.4039C216.669 102.019 216.523 104.053 216.233 105.505C215.991 106.909 215.458 108.362 214.635 109.863C213.86 111.364 212.48 113.568 210.495 116.473C208.461 119.427 207.057 121.582 206.282 122.937C205.507 124.293 204.999 125.504 204.757 126.569C204.514 127.586 204.393 129.015 204.393 130.855V131.726H209.333V124.899H216.814V139.208H196.404V131.871ZM231.287 140.079C227.898 140.079 225.307 139.038 223.515 136.956C221.724 134.874 220.828 131.775 220.828 127.659V99.9124C220.828 95.7964 221.724 92.6974 223.515 90.6152C225.307 88.533 227.898 87.4919 231.287 87.4919C234.677 87.4919 237.268 88.5572 239.059 90.6878C240.851 92.77 241.747 95.8449 241.747 99.9124V127.659C241.747 131.775 240.851 134.874 239.059 136.956C237.268 139.038 234.677 140.079 231.287 140.079ZM231.287 132.743C232.111 132.743 232.716 132.404 233.103 131.726C233.539 131 233.757 129.813 233.757 128.167V99.4039C233.757 97.7576 233.539 96.5954 233.103 95.9175C232.716 95.1911 232.111 94.828 231.287 94.828C230.464 94.828 229.835 95.1911 229.399 95.9175C229.011 96.5954 228.818 97.7576 228.818 99.4039V128.167C228.818 129.813 229.011 131 229.399 131.726C229.835 132.404 230.464 132.743 231.287 132.743ZM245.843 131.871C245.843 129.208 245.988 127.102 246.279 125.552C246.618 124.003 247.247 122.356 248.167 120.613C249.136 118.87 250.806 116.255 253.179 112.769C254.68 110.541 255.746 108.798 256.375 107.539C257.053 106.28 257.513 105.069 257.755 103.907C257.997 102.697 258.118 101.123 258.118 99.186C258.118 97.5881 257.949 96.4743 257.61 95.8449C257.271 95.1669 256.738 94.828 256.012 94.828C255.237 94.828 254.68 95.1669 254.341 95.8449C254.002 96.4743 253.833 97.5881 253.833 99.186V103.835H245.843V99.7671C245.843 95.748 246.715 92.6974 248.458 90.6152C250.201 88.533 252.719 87.4919 256.012 87.4919C259.305 87.4919 261.798 88.5088 263.493 90.5425C265.237 92.5763 266.108 95.5301 266.108 99.4039C266.108 102.019 265.963 104.053 265.672 105.505C265.43 106.909 264.898 108.362 264.074 109.863C263.3 111.364 261.92 113.568 259.934 116.473C257.9 119.427 256.496 121.582 255.721 122.937C254.947 124.293 254.438 125.504 254.196 126.569C253.954 127.586 253.833 129.015 253.833 130.855V131.726H258.772V124.899H266.253V139.208H245.843V131.871ZM279.637 140.079C276.248 140.079 273.681 139.062 271.938 137.028C270.195 134.946 269.323 131.871 269.323 127.804V122.72H277.313V128.385C277.313 129.935 277.483 131.048 277.822 131.726C278.209 132.404 278.814 132.743 279.637 132.743C280.412 132.743 280.969 132.404 281.308 131.726C281.695 131.048 281.889 129.935 281.889 128.385V114.076C281.889 113.059 281.744 112.333 281.453 111.897C281.211 111.461 280.8 111.243 280.218 111.243C278.959 111.243 278.185 112.212 277.894 114.149H270.268V88.3635H289.879V95.4817H277.894V107.321C278.475 106.498 279.25 105.82 280.218 105.287C281.187 104.755 282.252 104.488 283.414 104.488C285.448 104.488 287.022 105.239 288.136 106.74C289.298 108.241 289.879 110.444 289.879 113.35V127.804C289.879 131.871 289.007 134.946 287.264 137.028C285.521 139.062 282.979 140.079 279.637 140.079Z" fill="white"/>
</g>
<defs>
<filter id="filter0_d_25_197" x="71.7085" y="12.0266" width="92.3252" height="104.127" filterUnits="userSpaceOnUse" color-interpolation-filters="sRGB">
<feFlood flood-opacity="0" result="BackgroundImageFix"/>
<feColorMatrix in="SourceAlpha" type="matrix" values="0 0 0 0 0 0 0 0 0 0 0 0 0 0 0 0 0 0 127 0" result="hardAlpha"/>
<feOffset dx="1" dy="2"/>
<feComposite in2="hardAlpha" operator="out"/>
<feColorMatrix type="matrix" values="0 0 0 0 0.286275 0 0 0 0 0.282353 0 0 0 0 0.509804 0 0 0 0.4 0"/>
<feBlend mode="normal" in2="BackgroundImageFix" result="effect1_dropShadow_25_197"/>
<feBlend mode="normal" in="SourceGraphic" in2="effect1_dropShadow_25_197" result="shape"/>
</filter>
<filter id="filter1_d_25_197" x="25.5176" y="42.7708" width="133.765" height="83.8845" filterUnits="userSpaceOnUse" color-interpolation-filters="sRGB">
<feFlood flood-opacity="0" result="BackgroundImageFix"/>
<feColorMatrix in="SourceAlpha" type="matrix" values="0 0 0 0 0 0 0 0 0 0 0 0 0 0 0 0 0 0 127 0" result="hardAlpha"/>
<feOffset dx="1" dy="2"/>
<feComposite in2="hardAlpha" operator="out"/>
<feColorMatrix type="matrix" values="0 0 0 0 0.286275 0 0 0 0 0.282353 0 0 0 0 0.509804 0 0 0 0.4 0"/>
<feBlend mode="normal" in2="BackgroundImageFix" result="effect1_dropShadow_25_197"/>
<feBlend mode="normal" in="SourceGraphic" in2="effect1_dropShadow_25_197" result="shape"/>
</filter>
<filter id="filter2_d_25_197" x="11.1462" y="82.3748" width="141.81" height="54.0078" filterUnits="userSpaceOnUse" color-interpolation-filters="sRGB">
<feFlood flood-opacity="0" result="BackgroundImageFix"/>
<feColorMatrix in="SourceAlpha" type="matrix" values="0 0 0 0 0 0 0 0 0 0 0 0 0 0 0 0 0 0 127 0" result="hardAlpha"/>
<feOffset dx="1" dy="2"/>
<feComposite in2="hardAlpha" operator="out"/>
<feColorMatrix type="matrix" values="0 0 0 0 0.286275 0 0 0 0 0.282353 0 0 0 0 0.509804 0 0 0 0.4 0"/>
<feBlend mode="normal" in2="BackgroundImageFix" result="effect1_dropShadow_25_197"/>
<feBlend mode="normal" in="SourceGraphic" in2="effect1_dropShadow_25_197" result="shape"/>
</filter>
<filter id="filter3_d_25_197" x="26.0151" y="115.72" width="117.668" height="32.5525" filterUnits="userSpaceOnUse" color-interpolation-filters="sRGB">
<feFlood flood-opacity="0" result="BackgroundImageFix"/>
<feColorMatrix in="SourceAlpha" type="matrix" values="0 0 0 0 0 0 0 0 0 0 0 0 0 0 0 0 0 0 127 0" result="hardAlpha"/>
<feOffset dx="1" dy="2"/>
<feComposite in2="hardAlpha" operator="out"/>
<feColorMatrix type="matrix" values="0 0 0 0 0.286275 0 0 0 0 0.282353 0 0 0 0 0.509804 0 0 0 0.4 0"/>
<feBlend mode="normal" in2="BackgroundImageFix" result="effect1_dropShadow_25_197"/>
<feBlend mode="normal" in="SourceGraphic" in2="effect1_dropShadow_25_197" result="shape"/>
</filter>
<filter id="filter4_d_25_197" x="185.579" y="27.8" width="116.791" height="55.966" filterUnits="userSpaceOnUse" color-interpolation-filters="sRGB">
<feFlood flood-opacity="0" result="BackgroundImageFix"/>
<feColorMatrix in="SourceAlpha" type="matrix" values="0 0 0 0 0 0 0 0 0 0 0 0 0 0 0 0 0 0 127 0" result="hardAlpha"/>
<feOffset dx="2.25255" dy="3.37882"/>
<feComposite in2="hardAlpha" operator="out"/>
<feColorMatrix type="matrix" values="0 0 0 0 0.286275 0 0 0 0 0.282353 0 0 0 0 0.509804 0 0 0 0.4 0"/>
<feBlend mode="normal" in2="BackgroundImageFix" result="effect1_dropShadow_25_197"/>
<feBlend mode="normal" in="SourceGraphic" in2="effect1_dropShadow_25_197" result="shape"/>
</filter>
<filter id="filter5_d_25_197" x="196.404" y="87.4919" width="95.7279" height="55.966" filterUnits="userSpaceOnUse" color-interpolation-filters="sRGB">
<feFlood flood-opacity="0" result="BackgroundImageFix"/>
<feColorMatrix in="SourceAlpha" type="matrix" values="0 0 0 0 0 0 0 0 0 0 0 0 0 0 0 0 0 0 127 0" result="hardAlpha"/>
<feOffset dx="2.25255" dy="3.37882"/>
<feComposite in2="hardAlpha" operator="out"/>
<feColorMatrix type="matrix" values="0 0 0 0 0.286275 0 0 0 0 0.282353 0 0 0 0 0.509804 0 0 0 0.4 0"/>
<feBlend mode="normal" in2="BackgroundImageFix" result="effect1_dropShadow_25_197"/>
<feBlend mode="normal" in="SourceGraphic" in2="effect1_dropShadow_25_197" result="shape"/>
</filter>
<linearGradient id="paint0_linear_25_197" x1="142.292" y1="140.02" x2="26.8701" y2="140.02" gradientUnits="userSpaceOnUse">
<stop stop-color="#6C6BD1"/>
<stop offset="1" stop-color="#C8C3FF"/>
</linearGradient>
<linearGradient id="paint1_linear_25_197" x1="151.621" y1="114.451" x2="12.0691" y2="114.451" gradientUnits="userSpaceOnUse">
<stop offset="0.5" stop-color="#C8C3FF"/>
<stop offset="1" stop-color="#FF93D7"/>
</linearGradient>
<linearGradient id="paint2_linear_25_197" x1="157.965" y1="89.0783" x2="11.012" y2="89.0783" gradientUnits="userSpaceOnUse">
<stop stop-color="#C8C3FF"/>
<stop offset="1" stop-color="#B8EEF4"/>
</linearGradient>
<linearGradient id="paint3_linear_25_197" x1="163.251" y1="118.547" x2="49.0715" y2="26.7063" gradientUnits="userSpaceOnUse">
<stop stop-color="#DDFFFC"/>
<stop offset="0.7" stop-color="#C8C3FF"/>
</linearGradient>
<linearGradient id="paint4_linear_25_197" x1="166.423" y1="104.564" x2="82.4757" y2="17.1448" gradientUnits="userSpaceOnUse">
<stop stop-color="#C8C3FF"/>
<stop offset="1" stop-color="#6C6BD1"/>
</linearGradient>
<clipPath id="clip0_25_197">
<rect width="181.142" height="177.951" fill="white"/>
</clipPath>
</defs>
</svg>

<svg xmlns="http://www.w3.org/2000/svg" width="327" height="178" fill="none"><g clip-path="url(#a)"><path fill="url(#b)" d="m52.813 117.623 56.546 27.958 31.69-2.008-9.787 9.268-14.447 7.105-16.777 4.48-18.641.772-17.71-4.171-15.224-7.414-12.428-8.804-9.165-11.122z"/><path fill="url(#c)" d="m12.07 93.262 44.402-9.47 54.46 43.311 40.689 6.52-8.045 9.47-33.882 2.018-56.626-28.564-26.301 16.921-6.962-11.643-4.796-13.04z"/><path fill="url(#d)" d="M25.148 44.675 73.304 58.09l45.825 55.658 38.836 10.946-5.903 8.788-40.855-6.167-54.68-43.478-45.515 9.868V79.057l5.282-19.58z"/><path fill="url(#e)" d="m72.713 12.959 33.233 28.332 27.798 62.239 29.507 9.908-4.193 10.528-39.601-10.528-45.036-55.89-48.608-14.244 12.89-13.625 16.306-10.992z"/><path fill="url(#f)" d="m133.751 25.096 15.247 14.252 11.046 16.575 6.379 23.081V96.51l-3.734 16.885-28.938-10.688-27.848-61.964-32.515-27.729 18.358-2.168 21.625 3.717z"/><g filter="url(#g)"><path stroke="#fff" stroke-width="2.197" d="m72.417 12.867 33.546 27.876 28.11 61.911 28.576 10.472"/></g><g filter="url(#h)"><path stroke="#fff" stroke-width="2.197" d="M25.826 43.823 73.815 57.53l45.504 55.596 38.671 10.473"/></g><g filter="url(#i)"><path stroke="#fff" stroke-width="2.197" d="m11.383 93.568 45.193-10.01 54.668 43.275 40.534 6.469"/></g><g filter="url(#j)"><path stroke="#fff" stroke-width="2.197" d="m26.602 133.764 26.713-16.787 56.22 28.183 33.08-2.156"/></g><path stroke="#fff" stroke-width="3.295" d="M167.988 88.55c0 42.568-34.978 77.115-78.172 77.115S11.644 131.118 11.644 88.55c0-42.569 34.978-77.115 78.172-77.115s78.172 34.546 78.172 77.115Z"/></g><g filter="url(#k)"><path fill="#fff" d="M195.82 80.387q-5.012 0-7.626-3.05-2.615-3.124-2.615-9.225V40.075q0-6.029 2.615-9.152 2.614-3.123 7.626-3.123t7.627 3.123 2.615 9.152v5.738h-7.99v-6.319q0-2.397-.509-3.341-.508-1.017-1.743-1.017-1.234 0-1.743 1.017-.509.944-.509 3.341v29.2q0 2.323.509 3.34.58 1.017 1.743 1.017 1.235 0 1.743-.944.509-1.017.509-3.414V61.14h7.99v6.973q0 6.03-2.615 9.152-2.615 3.123-7.627 3.123m25.117 0q-5.012 0-7.699-3.123t-2.688-9.297V28.672h7.99v39.803q0 4.576 2.397 4.576 1.163 0 1.743-1.017.58-1.089.581-3.559V28.672h7.99v39.295q0 6.1-2.688 9.297-2.686 3.123-7.626 3.123m24.723 0q-5.012 0-7.627-3.05t-2.615-9.007v-4.794h7.99v5.302q0 2.252.509 3.269.508.944 1.743.944t1.743-1.017q.58-1.017.581-3.34 0-2.18-.363-3.56t-1.453-3.123q-1.09-1.743-3.995-5.884-2.76-3.849-4.067-6.246t-1.816-4.576q-.509-2.18-.509-5.157 0-6.03 2.615-9.152 2.615-3.195 7.482-3.196 4.938 0 7.554 3.123 2.614 3.123 2.614 9.152v4.068h-7.989v-4.649q0-2.397-.509-3.341-.509-1.017-1.67-1.017-1.09 0-1.598 1.017-.509 1.017-.509 3.486 0 2.18.291 3.487.363 1.235 1.38 2.978 1.09 1.671 3.922 5.52 2.833 3.923 4.14 6.392 1.38 2.47 1.889 4.721.58 2.252.581 5.375 0 6.101-2.615 9.225-2.615 3.05-7.699 3.05m30.667-.871H260.42V28.672h15.689v7.699h-7.699v13.51h6.973v7.7h-6.973v14.235h7.917zm13.549.871q-5.012 0-7.627-3.05-2.615-3.124-2.615-9.225V40.075q0-6.029 2.615-9.152t7.627-3.123 7.626 3.123q2.616 3.123 2.615 9.152v5.738h-7.989v-6.319q0-2.397-.509-3.341-.509-1.017-1.743-1.017-1.235 0-1.743 1.017-.509.944-.509 3.341v29.2q0 2.323.509 3.34.58 1.017 1.743 1.017 1.235 0 1.743-.944.509-1.017.509-3.414V61.14h7.989v6.973q0 6.03-2.615 9.152-2.615 3.123-7.626 3.123"/></g><g filter="url(#l)"><path fill="#fff" d="M196.404 131.871q0-3.994.435-6.319.509-2.324 1.889-4.939 1.452-2.615 5.012-7.844 2.251-3.342 3.196-5.23 1.016-1.889 1.38-3.632.363-1.815.363-4.721 0-2.397-.509-3.341-.508-1.017-1.598-1.017-1.161 0-1.67 1.017-.509.944-.509 3.341v4.649h-7.989v-4.068q0-6.029 2.614-9.152 2.616-3.123 7.554-3.123 4.94 0 7.482 3.05 2.615 3.051 2.615 8.862 0 3.923-.436 6.101-.363 2.106-1.598 4.358-1.163 2.252-4.14 6.61-3.05 4.431-4.213 6.464-1.162 2.034-1.525 3.632-.364 1.526-.364 4.286v.871h4.94v-6.827h7.481v14.309h-20.41zm34.883 8.208q-5.084 0-7.772-3.123-2.687-3.123-2.687-9.297V99.912q0-6.174 2.687-9.297 2.688-3.123 7.772-3.123 5.085 0 7.772 3.196 2.688 3.123 2.688 9.224v27.747q0 6.174-2.688 9.297-2.687 3.123-7.772 3.123m0-7.336q1.236 0 1.816-1.017.654-1.09.654-3.559V99.404q0-2.47-.654-3.486-.58-1.09-1.816-1.09-1.234 0-1.888 1.09-.581 1.016-.581 3.486v28.763q0 2.47.581 3.559.654 1.017 1.888 1.017m14.556-.872q0-3.994.436-6.319.508-2.324 1.888-4.939 1.453-2.615 5.012-7.844 2.252-3.342 3.196-5.23 1.017-1.889 1.38-3.632.363-1.815.363-4.721 0-2.397-.508-3.341-.509-1.017-1.598-1.017-1.163 0-1.671 1.017-.508.944-.508 3.341v4.649h-7.99v-4.068q0-6.029 2.615-9.152 2.614-3.123 7.554-3.123 4.939 0 7.481 3.05 2.616 3.051 2.615 8.862 0 3.923-.436 6.101-.363 2.106-1.598 4.358-1.161 2.252-4.14 6.61-3.05 4.431-4.213 6.464-1.161 2.034-1.525 3.632-.363 1.526-.363 4.286v.871h4.939v-6.827h7.481v14.309h-20.41zm33.794 8.208q-5.084 0-7.699-3.051-2.615-3.123-2.615-9.224v-5.084h7.99v5.665q0 2.325.509 3.341.58 1.017 1.815 1.017 1.162 0 1.671-1.017.58-1.017.581-3.341v-14.309q0-1.525-.436-2.179-.363-.654-1.235-.654-1.888 0-2.324 2.906h-7.626V88.364h19.611v7.118h-11.985v11.839q.872-1.234 2.324-2.034 1.453-.798 3.196-.799 3.051 0 4.722 2.252 1.743 2.251 1.743 6.61v14.454q0 6.1-2.615 9.224-2.614 3.051-7.627 3.051"/></g><defs><filter id="g" width="92.325" height="104.127" x="71.709" y="12.027" color-interpolation-filters="sRGB" filterUnits="userSpaceOnUse"><feFlood flood-opacity="0" result="BackgroundImageFix"/><feColorMatrix in="SourceAlpha" result="hardAlpha" values="0 0 0 0 0 0 0 0 0 0 0 0 0 0 0 0 0 0 127 0"/><feOffset dx="1" dy="2"/><feComposite in2="hardAlpha" operator="out"/><feColorMatrix values="0 0 0 0 0.286275 0 0 0 0 0.282353 0 0 0 0 0.509804 0 0 0 0.4 0"/><feBlend in2="BackgroundImageFix" result="effect1_dropShadow_25_197"/><feBlend in="SourceGraphic" in2="effect1_dropShadow_25_197" result="shape"/></filter><filter id="h" width="133.765" height="83.885" x="25.518" y="42.771" color-interpolation-filters="sRGB" filterUnits="userSpaceOnUse"><feFlood flood-opacity="0" result="BackgroundImageFix"/><feColorMatrix in="SourceAlpha" result="hardAlpha" values="0 0 0 0 0 0 0 0 0 0 0 0 0 0 0 0 0 0 127 0"/><feOffset dx="1" dy="2"/><feComposite in2="hardAlpha" operator="out"/><feColorMatrix values="0 0 0 0 0.286275 0 0 0 0 0.282353 0 0 0 0 0.509804 0 0 0 0.4 0"/><feBlend in2="BackgroundImageFix" result="effect1_dropShadow_25_197"/><feBlend in="SourceGraphic" in2="effect1_dropShadow_25_197" result="shape"/></filter><filter id="i" width="141.81" height="54.008" x="11.146" y="82.375" color-interpolation-filters="sRGB" filterUnits="userSpaceOnUse"><feFlood flood-opacity="0" result="BackgroundImageFix"/><feColorMatrix in="SourceAlpha" result="hardAlpha" values="0 0 0 0 0 0 0 0 0 0 0 0 0 0 0 0 0 0 127 0"/><feOffset dx="1" dy="2"/><feComposite in2="hardAlpha" operator="out"/><feColorMatrix values="0 0 0 0 0.286275 0 0 0 0 0.282353 0 0 0 0 0.509804 0 0 0 0.4 0"/><feBlend in2="BackgroundImageFix" result="effect1_dropShadow_25_197"/><feBlend in="SourceGraphic" in2="effect1_dropShadow_25_197" result="shape"/></filter><filter id="j" width="117.668" height="32.553" x="26.015" y="115.72" color-interpolation-filters="sRGB" filterUnits="userSpaceOnUse"><feFlood flood-opacity="0" result="BackgroundImageFix"/><feColorMatrix in="SourceAlpha" result="hardAlpha" values="0 0 0 0 0 0 0 0 0 0 0 0 0 0 0 0 0 0 127 0"/><feOffset dx="1" dy="2"/><feComposite in2="hardAlpha" operator="out"/><feColorMatrix values="0 0 0 0 0.286275 0 0 0 0 0.282353 0 0 0 0 0.509804 0 0 0 0.4 0"/><feBlend in2="BackgroundImageFix" result="effect1_dropShadow_25_197"/><feBlend in="SourceGraphic" in2="effect1_dropShadow_25_197" result="shape"/></filter><filter id="k" width="116.791" height="55.966" x="185.579" y="27.8" color-interpolation-filters="sRGB" filterUnits="userSpaceOnUse"><feFlood flood-opacity="0" result="BackgroundImageFix"/><feColorMatrix in="SourceAlpha" result="hardAlpha" values="0 0 0 0 0 0 0 0 0 0 0 0 0 0 0 0 0 0 127 0"/><feOffset dx="2.253" dy="3.379"/><feComposite in2="hardAlpha" operator="out"/><feColorMatrix values="0 0 0 0 0.286275 0 0 0 0 0.282353 0 0 0 0 0.509804 0 0 0 0.4 0"/><feBlend in2="BackgroundImageFix" result="effect1_dropShadow_25_197"/><feBlend in="SourceGraphic" in2="effect1_dropShadow_25_197" result="shape"/></filter><filter id="l" width="95.728" height="55.966" x="196.404" y="87.492" color-interpolation-filters="sRGB" filterUnits="userSpaceOnUse"><feFlood flood-opacity="0" result="BackgroundImageFix"/><feColorMatrix in="SourceAlpha" result="hardAlpha" values="0 0 0 0 0 0 0 0 0 0 0 0 0 0 0 0 0 0 127 0"/><feOffset dx="2.253" dy="3.379"/><feComposite in2="hardAlpha" operator="out"/><feColorMatrix values="0 0 0 0 0.286275 0 0 0 0 0.282353 0 0 0 0 0.509804 0 0 0 0.4 0"/><feBlend in2="BackgroundImageFix" result="effect1_dropShadow_25_197"/><feBlend in="SourceGraphic" in2="effect1_dropShadow_25_197" result="shape"/></filter><linearGradient id="b" x1="142.292" x2="26.87" y1="140.02" y2="140.02" gradientUnits="userSpaceOnUse"><stop stop-color="#6C6BD1"/><stop offset="1" stop-color="#C8C3FF"/></linearGradient><linearGradient id="c" x1="151.621" x2="12.069" y1="114.451" y2="114.451" gradientUnits="userSpaceOnUse"><stop offset=".5" stop-color="#C8C3FF"/><stop offset="1" stop-color="#FF93D7"/></linearGradient><linearGradient id="d" x1="157.965" x2="11.012" y1="89.078" y2="89.078" gradientUnits="userSpaceOnUse"><stop stop-color="#C8C3FF"/><stop offset="1" stop-color="#B8EEF4"/></linearGradient><linearGradient id="e" x1="163.251" x2="49.072" y1="118.547" y2="26.706" gradientUnits="userSpaceOnUse"><stop stop-color="#DDFFFC"/><stop offset=".7" stop-color="#C8C3FF"/></linearGradient><linearGradient id="f" x1="166.423" x2="82.476" y1="104.564" y2="17.145" gradientUnits="userSpaceOnUse"><stop stop-color="#C8C3FF"/><stop offset="1" stop-color="#6C6BD1"/></linearGradient><clipPath id="a"><path fill="#fff" d="M0 0h181.142v177.951H0z"/></clipPath></defs></svg>
